image/benefits/icon-3.svg

<svg width="41" height="40" viewBox="0 0 41 40" fill="none" xmlns="http://www.w3.org/2000/svg">
<path fill-rule="evenodd" clip-rule="evenodd" d="M32.5714 26C31.92 27.3035 31.0488 28.5287 29.9572 29.6203C24.5811 34.9964 15.9644 35.0282 10.7109 29.7747C9.58541 28.6492 8.70249 27.3693 8.06274 26H5.88435C6.63299 27.8922 7.77016 29.6624 9.2967 31.1889C15.3498 37.242 25.233 37.1729 31.3714 31.0345C32.8644 29.5416 33.9983 27.827 34.7725 26H32.5714ZM33.4621 16H35.5378C34.8778 13.4151 33.5411 10.9752 31.5257 8.95986C25.4726 2.90673 15.5895 2.97585 9.45107 9.11423C7.46288 11.1024 6.1114 13.4835 5.39844 16H7.48891C8.14447 14.0057 9.26941 12.1243 10.8653 10.5284C16.2413 5.1524 24.858 5.12058 30.1115 10.3741C31.7316 11.9941 32.849 13.934 33.4621 16Z" fill="#2E2E2E"/>
<path d="M9.33594 20.5H14.1765C14.5766 20.5 14.9381 20.7384 15.0957 21.1061L16.8849 25.281C17.2359 26.0999 18.4017 26.0856 18.7326 25.2585L22.8774 14.8964C23.2166 14.0484 24.4215 14.0615 24.7422 14.9167L26.5926 19.8511C26.739 20.2414 27.1121 20.5 27.5289 20.5H31.3359" stroke="#C63031" stroke-width="2" stroke-linecap="round"/>
<circle cx="6.45703" cy="21.1211" r="2.49984" transform="rotate(-45 6.45703 21.1211)" stroke="#C63031" stroke-width="2"/>
<circle cx="34.457" cy="21.1211" r="2.49984" transform="rotate(-45 34.457 21.1211)" stroke="#C63031" stroke-width="2"/>
</svg>

<svg width="41" height="40" fill="none" xmlns="http://www.w3.org/2000/svg"><path fill-rule="evenodd" clip-rule="evenodd" d="M32.571 26a13.908 13.908 0 0 1-2.614 3.62c-5.376 5.376-13.993 5.408-19.246.155A13.28 13.28 0 0 1 8.063 26H5.884a15.266 15.266 0 0 0 3.413 5.189c6.053 6.053 15.936 5.984 22.074-.154A15.865 15.865 0 0 0 34.773 26H32.57Zm.891-10h2.076a15.265 15.265 0 0 0-4.012-7.04c-6.053-6.053-15.937-5.984-22.075.154A15.818 15.818 0 0 0 5.398 16h2.09a13.835 13.835 0 0 1 3.377-5.472c5.376-5.376 13.993-5.407 19.247-.154A13.274 13.274 0 0 1 33.462 16Z" fill="#2E2E2E"/><path d="M9.336 20.5h4.84a1 1 0 0 1 .92.606l1.789 4.175c.35.819 1.517.805 1.848-.022l4.144-10.363c.34-.848 1.545-.835 1.865.02l1.85 4.935a1 1 0 0 0 .937.649h3.807" stroke="#C63031" stroke-width="2" stroke-linecap="round"/><circle cx="6.457" cy="21.121" r="2.5" transform="rotate(-45 6.457 21.121)" stroke="#C63031" stroke-width="2"/><circle cx="34.457" cy="21.121" r="2.5" transform="rotate(-45 34.457 21.121)" stroke="#C63031" stroke-width="2"/></svg>
